X: 17031
T: Heartsease
R: three-two
M: 3/2
K: Gdorian
|:D2G2 B4 d2cB|A2GF c2F2 A2GF|D2G2 B4 d2cd|B3A G2AB cAGF:|
|:D2G2 GABG B3c|A2GF c2F2 A2GF|D2G2 GABG defd|A2G2 d2G2 A2GF:|
|:G2g2 f2a2 e2g2|c2f4 F2 ABcA|G2g2 fgag gfed|B2ef g2G2 ABcA:|
|:bag2 gaf2 e3d|c2f4 F2 ABcA|bag2 agf2 gfed|B2ef g2G2 ABcA:|
|:d2_ed c2dc B2cB|A2GF c2F2 ABcA|d2_ed c2dc B2cB|A2G4 AB cAGF:|
|:D2G2 C2G2 B,2D2|A,2F4 AB cAGF|D2G2 C2G2 B,2D2|G,G4 AB cAGF:|
|:D2G2 GABG BcdB|A2GF c2F2 A2GF|D2G2 GABG BcdB|A2G4 AB cAGF:|
|:G2ef g2Bc d2cB|A2de f2F2 ABcA|G2ef g2Bc d2cB|g2fe d2cB c2BA:|
|:G2ef g2Bc d2cB|A2de f2F2 ABcA|bagb agfa gfed|B2ef g2G2 ABcA:|
|:d2g2 c2f2 B2cB|A2GF c2F2 ABcA|d2g2 c2f2 B2cB|A2G4 FG cBAG:|
|:D2G4 G,2B,3C|A,2F4 AB cAGF|D2G4 G,2B,3C|G,2G4 BAG2F2:|
|:D2G2 C2G2 B,2D2|A,2F4 AB cAGF|D2G2 C2G2 B,2D2|G,2G4 AB cAGF:|
|:G2g2 fgaf gfed|c2f2 f2F2 ABcA|G2g2 fgaf gfed|B2G4 G2 ABcA:|

